!! 00000] TT[00
!! NN
!!!OTL: Chuan gu niang
!!!ARE: Asia, China,ÿNingxia, Guyuan
!! Ethnic Group: Han
!! I, 187
!!!SCT: C0745
!!!YEM: Copyright 1995, estate of Helmut Schaffrath.
**kern
*ICvox
*Ivox
*M2/4
*k[b-e-]
*B-:
{8ff
4ff
16cc
16b-
=1
16b-
16cc
16b-
16g
8f
8f
=2
8ff
4ff
8bb-
=3
16ccc
16fff
16bb-
16gg
4ff}
=4
{8fff
16fff
16eee-
4ccc
=5
16bb-
16ccc
16bb-
16gg
8ff
8ee-
=6
4ff
8.a
16b-
=7
8cc
8ff
4cc}
=8
{8b-
16b-
16cc
8ff
16ff
16ff
=9
4ccc
4bb-
=10
8.gg
16bb-
8gg
8ff
=11
8ee-
8cc
4b-}
=12
{8gg
4bb-
8gg
=13
8ff
8ee-
16cc
16ee-
16b-
16cc
=14
4ff
16cc
16b-
16a-
16g
=15
2f}
=16
{8.gg
16ff
8bb-
16gg
16ff
=17
8ee-
16dd
16cc
4b-}
=18
{8gg
4bb-
8gg
=19
8ff
8ee-
16cc
16ee-
16b-
16cc
=20
4ff
16cc
16b-
16a-
16g
=21
2f}
==
!!!AGN: Wuge, Hanchuan. Zanmei guniang
!! neue Weise. Titel: Man macht ein Boot aus Seide, in das sich
!!    ein Maedchen stellt.
!!!ONB: ESAC (Essen Associative Code) Database: CHINA
!!!AMT: simple duple
!!!AIN: vox
!!!EED: Helmut Schaffrath
!!!EEV: 1.0
*-
